X:384
T: Zhijian qingsong bujian hua
N: C1419
O: China, Gansu, Jiuquan
S: I, 135]
R: Wuge, Yangge]
M: 2/4
L: 1/16
K: G
d4b3a | b2b4z2 | a4b3d | b3ag3e
g6a2 | b2b2g3b | a2g2e4 | d6z2
d2B2d4 | e2g2z4 | g2g2e3d | B6z2
a2a4d2 | b4g4 | e2e2g4 | g6z2

